X: 1
T:Boogie Reel, The
C:John Nolan
R:reel
Z:id:hn-reel-778
M:C|
K:D
DEFA d2cd|BAFB AFEF|DEFA dfec|dBAF EGFE|
DEFA ~d3e|fded BAFA|edef gece|1 dAFA dGFE:|2 dAFA d2cd||
|:eA~A2 EA~A2|edef gbag|fd~d2 Ad~d2|fgaf d2cd|
Beed efed|cdef gefg|afdf gece|1 dAFA d2cd:|2 dAFA dGFE||
